svgs/sharp-regular/cassette-betamax.svg

<svg xmlns="http://www.w3.org/2000/svg" viewBox="0 0 576 512"><!--! Font Awesome Pro 6.6.0 by @fontawesome - https://fontawesome.com License - https://fontawesome.com/license (Commercial License) Copyright 2024 Fonticons, Inc. --><path d="M48 432l0-272 480 0 0 272L48 432zM48 32L0 32 0 80 0 432l0 48 48 0 480 0 48 0 0-48 0-352 0-48-48 0L48 32zM368 256l80 0 0 80-80 0 0-80zm-48-48l0 48 0 80 0 48 48 0 80 0 48 0 0-48 0-80 0-48-48 0-80 0-48 0zM184 240a56 56 0 1 1 0 112 56 56 0 1 1 0-112zm0 160a104 104 0 1 0 0-208 104 104 0 1 0 0 208zm0-80a24 24 0 1 0 0-48 24 24 0 1 0 0 48z"/></svg>

<svg xmlns="http://www.w3.org/2000/svg" viewBox="0 0 576 512"><!--! Font Awesome Pro 6.4.2 by @fontawesome - https://fontawesome.com License - https://fontawesome.com/license (Commercial License) Copyright 2023 Fonticons, Inc. --><path d="M48 432V160H528V432H48zM48 32H0V80 432v48H48 528h48V432 80 32H528 48zM368 256h80v80H368V256zm-48-48v48 80 48h48 80 48V336 256 208H448 368 320zM184 240a56 56 0 1 1 0 112 56 56 0 1 1 0-112zm0 160a104 104 0 1 0 0-208 104 104 0 1 0 0 208zm0-80a24 24 0 1 0 0-48 24 24 0 1 0 0 48z"/></svg>
